Cloud/dashboard/static/tracks/donington.svg

<?xml version="1.0" encoding="UTF-8"?>
<!-- Uploaded to: SVG Find, www.svgfind.com, Generator: SVG Find Mixer Tools -->
<svg fill="#000000" width="800px" height="800px" version="1.1" viewBox="144 144 512 512" xmlns="http://www.w3.org/2000/svg">
 <path d="m605.33 459.53c-6.918-8.5742-16.77-13.77-27.75-14.633l-24.5-1.9219c-6.0156-0.47266-11.66-2.6992-16.324-6.4492-16.016-12.859-35.281-31.273-48.621-44.457-10.672-10.547-17.766-24.543-19.969-39.41-2.2109-14.91-5.2578-35.902-7.2109-51.219-1.918-15.07-13.176-27.422-28.004-30.734l-44.898-10.027c-15.961-3.5625-30.43-12.824-40.746-26.078-23.367-30.023-54.477-45.246-92.465-45.246-15.547 0-31.941 2.5977-48.738 7.7227-9.4648 2.8867-16.652 10.332-19.227 19.91-2.5859 9.6367-0.074219 19.742 6.7227 27.031l135.94 145.83c4.0547 4.3555 4.7852 10.742 1.8047 15.895l-0.80078 1.3906c-0.66797 1.1523-1.8633 1.8398-3.2031 1.8398-0.58203 0-1.4492-0.13672-2.2969-0.79688-32.488-25.273-86.41-56.121-108.08-68.211-2.3984-1.3359-5.1016-2.043-7.8203-2.043-7.2305 0-13.613 4.8672-15.527 11.836-2.0312 7.3945 1.4609 15.242 8.3125 18.652 53.816 26.812 114.84 73.469 132.25 87.133 3.6406 2.8516 8.9492 3.3203 13.027 1.1641l2.457-1.2969c5.6328-2.9688 12.875-2.0859 17.609 2.1211l161.51 143.34c4.8477 4.3008 10.824 7.1328 17.27 8.1875 5.8906 0.96484 12.039 1.4961 18.289 1.5781l0.48828 0.003907c18.516 0 34.367-13.887 36.875-32.305l12.043-88.594c1.4844-10.906-1.5039-21.637-8.418-30.211zm-1.6992 28.844-12.043 88.594c-1.8203 13.383-13.324 23.477-26.758 23.477v5.1016l-0.35547-5.1055c-5.7422-0.074219-11.383-0.5625-16.77-1.4453-4.5508-0.74609-8.75-2.7344-12.148-5.7539l-161.51-143.34c-4.7227-4.1875-10.797-6.4961-17.117-6.4961-4.1758 0-8.3398 1.0312-12.035 2.9844l-2.4609 1.3008c-0.50781 0.26562-1.125 0.46875-1.9648-0.17578-17.609-13.812-79.316-60.996-134-88.234-2.4961-1.2422-3.7734-4.1094-3.0312-6.8164 0.97266-3.5117 5.2773-5.4023 8.5352-3.582 21.473 11.973 74.855 42.508 106.79 67.352 2.4805 1.9258 5.4414 2.9453 8.5664 2.9453 4.9492 0 9.5625-2.6562 12.039-6.9375l0.80859-1.3945c5.2383-9.0625 3.9609-20.297-3.1797-27.957l-47.34-50.781 7.5508-7.0742-29.34-31.309-0.015626-4.9922-15.801-4.4258 7.9961 8.5352 29.945 31.957-3.8164 3.5781-85.113-91.316c-4.3789-4.6992-6-11.215-4.332-17.43 1.6562-6.1602 6.2695-10.941 12.348-12.797 15.824-4.8281 31.223-7.2773 45.758-7.2773 34.672 0 63.074 13.898 84.414 41.312 11.766 15.117 28.309 25.688 46.578 29.77l44.898 10.027c10.645 2.3789 18.727 11.242 20.102 22.066 1.9688 15.406 5.0234 36.465 7.2422 51.422 2.5273 17.039 10.652 33.082 22.887 45.176 13.508 13.352 33.047 32.027 49.406 45.156 6.2695 5.0352 13.848 8.0312 21.914 8.6641l24.5 1.9219c8.1523 0.64063 15.469 4.4961 20.602 10.863 5.1367 6.3672 7.3555 14.336 6.25 22.438z"/>
</svg>

<?xml version="1.0" encoding="utf-8"?>
<svg fill="#000000" width="800px" height="800px" version="1.1" viewBox="144 144 512 512" xmlns="http://www.w3.org/2000/svg">
  <path d="M 605.33 459.53 C 598.412 450.956 588.56 445.76 577.58 444.897 L 553.08 442.975 C 547.064 442.502 541.42 440.276 536.756 436.526 C 520.74 423.667 501.475 405.253 488.135 392.069 C 477.463 381.522 470.369 367.526 468.166 352.659 C 465.955 337.749 462.908 316.757 460.955 301.44 C 459.037 286.37 447.779 274.018 432.951 270.706 L 388.053 260.679 C 372.092 257.116 357.623 247.855 347.307 234.601 C 323.94 204.578 292.83 189.355 254.842 189.355 C 239.295 189.355 222.901 191.953 206.104 197.078 C 196.639 199.964 189.452 207.41 186.877 216.988 C 184.291 226.624 186.803 236.73 193.6 244.019 L 329.54 389.849 C 333.595 394.204 334.325 400.591 331.345 405.744 L 330.544 407.134 C 329.876 408.286 328.68 408.974 327.341 408.974 C 326.759 408.974 325.891 408.837 325.044 408.177 C 292.556 382.904 238.634 352.056 216.964 339.966 C 214.565 338.63 211.862 337.923 209.143 337.923 C 201.913 337.923 195.53 342.79 193.616 349.759 C 191.585 357.154 195.077 365.001 201.929 368.411 C 255.745 395.223 316.769 441.88 334.179 455.544 C 337.82 458.396 343.128 458.864 347.206 456.708 L 349.663 455.411 C 355.296 452.443 362.538 453.325 367.272 457.532 L 528.782 600.872 C 533.63 605.173 539.606 608.005 546.052 609.06 C 551.943 610.025 558.091 610.556 564.341 610.638 L 564.829 610.642 C 583.345 610.642 599.196 596.755 601.704 578.337 L 613.747 489.743 C 615.232 478.837 612.243 468.106 605.329 459.532 L 605.33 459.53 Z M 603.631 488.374 L 591.588 576.968 C 589.767 590.351 578.264 600.445 564.83 600.445 L 564.83 605.547 L 564.474 600.441 C 558.732 600.367 553.091 599.879 547.704 598.996 C 543.154 598.25 538.954 596.261 535.556 593.242 L 374.046 449.902 C 369.324 445.714 363.249 443.406 356.929 443.406 C 352.753 443.406 348.589 444.437 344.894 446.39 L 342.433 447.691 C 341.926 447.957 341.308 448.16 340.469 447.515 C 322.86 433.703 261.153 386.519 206.469 359.281 C 203.972 358.039 202.695 355.172 203.437 352.465 C 204.41 348.953 208.715 347.063 211.973 348.883 C 233.446 360.856 286.828 391.391 318.763 416.235 C 321.243 418.161 324.204 419.18 327.329 419.18 C 332.278 419.18 336.891 416.524 339.368 412.243 L 340.177 410.848 C 345.415 401.786 344.137 390.551 336.997 382.891 L 201.063 237.063 C 196.684 232.364 195.063 225.848 196.731 219.633 C 198.387 213.473 203 208.692 209.079 206.836 C 224.903 202.008 240.302 199.559 254.837 199.559 C 289.509 199.559 317.911 213.457 339.251 240.871 C 351.017 255.988 367.56 266.559 385.829 270.641 L 430.727 280.668 C 441.372 283.047 449.454 291.91 450.829 302.734 C 452.798 318.14 455.852 339.199 458.071 354.156 C 460.598 371.195 468.723 387.238 480.958 399.332 C 494.466 412.684 514.005 431.359 530.364 444.488 C 536.633 449.523 544.212 452.519 552.278 453.152 L 576.778 455.074 C 584.93 455.715 592.247 459.57 597.38 465.937 C 602.517 472.304 604.735 480.273 603.63 488.375 L 603.631 488.374 Z"/>
</svg>
